X: 485
M: C|
L: 1/16
K: A
V: 1
[|\
((3A2B2c2) (TB4 (3A2B2c2) TB4 | A2 a4 g2 Tf4 e4 |\
(fede) f2a2 (edcd) e2a2 | d2b2c2a2 Tc4B4 |
((3A2B2c2) (TB4 (3A2B2c2) TB4 | A2 a4 g2 Tf4 e4 |\
(fede) f2a2 (edcd) e2a2 | f2d2B2e2 {d}c4B2A2 |]
|:\
(3c2B2A2 (3c2d2e2 (3f2e2d2 (3f2g2a2 | (3g2f2e2 (3g2a2b2 a4A4 :|
V: 2 clef=bass middle=d
[|\
a4e4 a4e4 | a4a4 a4a4 | d4d4 c4c4 | B4A4 e4e4 |
a4e4 a4e4 | a4a4 a4a4 | d4d4 c4A4 | d4e4 A4a4 |]
|:\
g4e4 a4e4 | e4e4 e4e4 | a4a4 d4d4 | e4e4 A4A4 :|

